X:096 
T:Jimmy Ward's Jig 
B:CRE3.002 (Port Jimmy Mhic an Bhaird)
F:file ID: cre.3/096jimmy_w
R:jig % A-B-A
Q:160
M:6/8
L:1/8
K:G
D|:G3 G2B|AGE GED|~G3 AGE|GED D2E|
BGG GAB|AGE GAB|c2A BGE|1 DED D2E:|2 DED D||
|:dB|c2A BAG|ABA AdB|cBA BGE|DED D2B|
cBA BAG|AGA-ABc|dcA AGE|1 GED D:|2 GED D2E||

%%%

